src/icons/add-section.svg

<svg xmlns="http://www.w3.org/2000/svg" width="24" height="24" fill="none"><path fill="currentColor" d="M1 5V3h22v2zm10 5h2v3h3v2h-3v3h-2v-3H8v-2h3z"/><path fill="currentColor" fill-rule="evenodd" d="M1 7v14h22V7zm20 2H3v10h18z" clip-rule="evenodd"/></svg>

<svg width="24" height="24" viewBox="0 0 24 24" fill="none" xmlns="http://www.w3.org/2000/svg">
<path d="M1 5V3H23V5H1Z" fill="black"/>
<path d="M11 10H13V13H16V15H13V18H11V15H8V13H11V10Z" fill="black"/>
<path fill-rule="evenodd" clip-rule="evenodd" d="M1 7V21H23V7H1ZM21 9H3V19H21V9Z" fill="black"/>
</svg>
